assets/icons/24px/stroke/website-with-image-24px.svg

<svg width="24" height="24" viewBox="0 0 24 24" fill="none" xmlns="http://www.w3.org/2000/svg">
<path fill-rule="evenodd" clip-rule="evenodd" d="M6.93417 2C6.95604 2 6.97799 2 7 2L17.0658 2C17.9523 1.99995 18.7161 1.99991 19.3278 2.08215C19.9833 2.17028 20.6117 2.36902 21.1213 2.87868C21.631 3.38835 21.8297 4.0167 21.9179 4.67221C22.0001 5.28388 22.0001 6.0477 22 6.9342V17.0658C22.0001 17.9523 22.0001 18.7161 21.9179 19.3278C21.8297 19.9833 21.631 20.6117 21.1213 21.1213C20.6117 21.631 19.9833 21.8297 19.3278 21.9179C18.7161 22.0001 17.9523 22.0001 17.0658 22H6.9342C6.0477 22.0001 5.28388 22.0001 4.67221 21.9179C4.0167 21.8297 3.38835 21.631 2.87868 21.1213C2.36902 20.6117 2.17028 19.9833 2.08215 19.3278C1.99991 18.7161 1.99995 17.9523 2 17.0658L2 7C2 6.97799 2 6.95604 2 6.93417C1.99995 6.04769 1.99991 5.28387 2.08215 4.67221C2.17028 4.0167 2.36902 3.38835 2.87868 2.87868C3.38835 2.36902 4.0167 2.17028 4.67221 2.08215C5.28387 1.99991 6.04769 1.99995 6.93417 2ZM4.93871 4.06431C4.50497 4.12263 4.36902 4.21677 4.2929 4.2929C4.21677 4.36902 4.12263 4.50497 4.06431 4.93871C4.00213 5.40121 4 6.02893 4 7V17C4 17.9711 4.00213 18.5988 4.06431 19.0613C4.12263 19.495 4.21677 19.631 4.2929 19.7071C4.36902 19.7832 4.50497 19.8774 4.93871 19.9357C5.40121 19.9979 6.02893 20 7 20H17C17.9711 20 18.5988 19.9979 19.0613 19.9357C19.495 19.8774 19.631 19.7832 19.7071 19.7071C19.7832 19.631 19.8774 19.495 19.9357 19.0613C19.9979 18.5988 20 17.9711 20 17V7C20 6.02893 19.9979 5.40122 19.9357 4.93871C19.8774 4.50497 19.7832 4.36902 19.7071 4.2929C19.631 4.21677 19.495 4.12263 19.0613 4.06431C18.5988 4.00213 17.9711 4 17 4H7C6.02893 4 5.40122 4.00213 4.93871 4.06431Z" fill="white"/>
<path fill-rule="evenodd" clip-rule="evenodd" d="M8.44561 8.50001C8.46372 8.50001 8.48186 8.50001 8.50001 8.50001H9.50001C9.51817 8.50001 9.53631 8.50001 9.55442 8.50001C9.97849 8.49992 10.3906 8.49984 10.7305 8.54554C11.1137 8.59706 11.551 8.72259 11.9142 9.0858C12.2774 9.44902 12.403 9.88629 12.4545 10.2695C12.5002 10.6094 12.5001 11.0215 12.5 11.4456C12.5 11.4637 12.5 11.4819 12.5 11.5V15.5C12.5 15.5182 12.5 15.5363 12.5 15.5544C12.5001 15.9785 12.5002 16.3906 12.4545 16.7305C12.403 17.1137 12.2774 17.551 11.9142 17.9142C11.551 18.2774 11.1137 18.403 10.7305 18.4545C10.3906 18.5002 9.97849 18.5001 9.55442 18.5C9.53631 18.5 9.51817 18.5 9.50001 18.5H8.50001C8.48186 18.5 8.46372 18.5 8.4456 18.5C8.02153 18.5001 7.60941 18.5002 7.26949 18.4545C6.88629 18.403 6.44902 18.2774 6.0858 17.9142C5.72259 17.551 5.59706 17.1137 5.54554 16.7305C5.49984 16.3906 5.49992 15.9785 5.50001 15.5544C5.50001 15.5363 5.50001 15.5182 5.50001 15.5V11.5C5.50001 11.4819 5.50001 11.4637 5.50001 11.4456C5.49992 11.0215 5.49984 10.6094 5.54554 10.2695C5.59706 9.88629 5.72259 9.44902 6.0858 9.0858C6.44902 8.72259 6.88629 8.59706 7.26949 8.54554C7.60941 8.49984 8.02154 8.49992 8.44561 8.50001ZM7.52871 10.5287C7.52838 10.5311 7.52804 10.5335 7.52771 10.536C7.50214 10.7262 7.50001 11.0003 7.50001 11.5V15.5C7.50001 15.9997 7.50214 16.2738 7.52771 16.464C7.52804 16.4665 7.52838 16.4689 7.52871 16.4713C7.53108 16.4717 7.53351 16.472 7.53599 16.4723C7.72618 16.4979 8.00034 16.5 8.50001 16.5H9.50001C9.99969 16.5 10.2738 16.4979 10.464 16.4723C10.4665 16.472 10.4689 16.4717 10.4713 16.4713C10.4717 16.4689 10.472 16.4665 10.4723 16.464C10.4979 16.2738 10.5 15.9997 10.5 15.5V11.5C10.5 11.0003 10.4979 10.7262 10.4723 10.536C10.472 10.5335 10.4717 10.5311 10.4713 10.5287C10.4689 10.5284 10.4665 10.528 10.464 10.5277C10.2738 10.5021 9.99969 10.5 9.50001 10.5H8.50001C8.00034 10.5 7.72618 10.5021 7.53599 10.5277C7.53351 10.528 7.53108 10.5284 7.52871 10.5287Z" fill="white"/>
<path fill-rule="evenodd" clip-rule="evenodd" d="M2 6C2 5.44772 2.44772 5 3 5L21 5C21.5523 5 22 5.44772 22 6C22 6.55228 21.5523 7 21 7L3 7C2.44772 7 2 6.55228 2 6Z" fill="white"/>
<path fill-rule="evenodd" clip-rule="evenodd" d="M14 10C14 9.44772 14.4477 9 15 9H17C17.5523 9 18 9.44772 18 10C18 10.5523 17.5523 11 17 11H15C14.4477 11 14 10.5523 14 10ZM14 13.5C14 12.9477 14.4477 12.5 15 12.5H17C17.5523 12.5 18 12.9477 18 13.5C18 14.0523 17.5523 14.5 17 14.5H15C14.4477 14.5 14 14.0523 14 13.5ZM14 17C14 16.4477 14.4477 16 15 16H15.8C16.3523 16 16.8 16.4477 16.8 17C16.8 17.5523 16.3523 18 15.8 18H15C14.4477 18 14 17.5523 14 17Z" fill="white"/>
</svg>

<svg width="24" height="24" fill="none" xmlns="http://www.w3.org/2000/svg"><path fill-rule="evenodd" clip-rule="evenodd" d="M6.934 2H17.066c.886 0 1.65 0 2.262.082.655.088 1.284.287 1.793.797.51.51.709 1.138.797 1.793C22 5.284 22 6.048 22 6.934v10.132c0 .886 0 1.65-.082 2.262-.088.655-.287 1.284-.797 1.793-.51.51-1.138.709-1.793.797-.612.082-1.376.082-2.262.082H6.934c-.886 0-1.65 0-2.262-.082-.655-.088-1.284-.287-1.793-.797-.51-.51-.709-1.138-.797-1.793C2 18.716 2 17.952 2 17.066V7v-.066c0-.886 0-1.65.082-2.262.088-.655.287-1.284.797-1.793.51-.51 1.138-.709 1.793-.797C5.284 2 6.048 2 6.934 2zM4.94 4.064c-.434.059-.57.153-.646.229-.076.076-.17.212-.229.646C4.002 5.4 4 6.029 4 7v10c0 .971.002 1.599.064 2.061.059.434.153.57.229.646.076.076.212.17.646.229C5.4 19.998 6.029 20 7 20h10c.971 0 1.599-.002 2.061-.064.434-.059.57-.153.646-.229.076-.076.17-.212.229-.646.062-.462.064-1.09.064-2.061V7c0-.971-.002-1.599-.064-2.061-.059-.434-.153-.57-.229-.646-.076-.076-.212-.17-.646-.229C18.6 4.002 17.971 4 17 4H7c-.971 0-1.599.002-2.061.064z" fill="#fff"/><path fill-rule="evenodd" clip-rule="evenodd" d="M8.446 8.5h1.108c.424 0 .837 0 1.176.046.384.051.821.177 1.184.54.363.363.489.8.54 1.184.046.34.046.752.046 1.176V15.554c0 .425 0 .837-.046 1.176-.051.384-.177.821-.54 1.184-.363.363-.8.489-1.184.54-.34.046-.752.046-1.176.046H8.446c-.424 0-.837 0-1.177-.046-.383-.051-.82-.177-1.183-.54-.363-.363-.489-.8-.54-1.184-.046-.34-.046-.752-.046-1.176V11.5v-.054c0-.425 0-.837.046-1.176.051-.384.177-.821.54-1.184.363-.363.8-.489 1.183-.54.34-.046.753-.046 1.177-.046zm-.917 2.029l-.001.007c-.026.19-.028.464-.028.964v4c0 .5.002.774.028.964v.007l.008.001c.19.026.464.028.964.028h1c.5 0 .774-.002.964-.028a.16.16 0 0 0 .007 0l.001-.008c.026-.19.028-.464.028-.964v-4c0-.5-.002-.774-.028-.964a.16.16 0 0 0 0-.007l-.008-.001c-.19-.026-.464-.028-.964-.028h-1c-.5 0-.774.002-.964.028h-.007zM2 6a1 1 0 0 1 1-1h18a1 1 0 1 1 0 2H3a1 1 0 0 1-1-1zm12 4a1 1 0 0 1 1-1h2a1 1 0 1 1 0 2h-2a1 1 0 0 1-1-1zm0 3.5a1 1 0 0 1 1-1h2a1 1 0 1 1 0 2h-2a1 1 0 0 1-1-1zm0 3.5a1 1 0 0 1 1-1h.8a1 1 0 1 1 0 2H15a1 1 0 0 1-1-1z" fill="#fff"/></svg>
